src/static/img/icon_email_circle.svg

<svg id="Layer_1" xmlns="http://www.w3.org/2000/svg" viewBox="0 0 30 30">
  <style>
    .st0{fill:#000000;}
  </style>
  <path class="st0" d="M15 30C6.7 30 0 23.3 0 15S6.7 0 15 0s15 6.7 15 15-6.7 15-15 15zM15 .5C7 .5.5 7 .5 15S7 29.5 15 29.5 29.5 23 29.5 15 23 .5 15 .5z"/>
  <path class="st0" d="M6.9 10.4v10h16v-10h-16zm1 1.5l3.9 2.9-3.9 3.9v-6.8zm7 3.8l-6-4.3h11.9l-5.9 4.3zm-2.3-.4l2.3 1.7 2.3-1.7 4.1 4H8.5l4.1-4zm5.4-.6l3.9-2.9v6.7L18 14.7z"/>
</svg>

<?xml version="1.0" encoding="utf-8"?>
<!-- Generator: Adobe Illustrator 19.2.1, SVG Export Plug-In . SVG Version: 6.00 Build 0)  -->
<!DOCTYPE svg PUBLIC "-//W3C//DTD SVG 1.1//EN" "http://www.w3.org/Graphics/SVG/1.1/DTD/svg11.dtd">
<svg version="1.1" id="Layer_1" xmlns="http://www.w3.org/2000/svg" xmlns:xlink="http://www.w3.org/1999/xlink" x="0px" y="0px"
	 viewBox="0 0 30 30" style="enable-background:new 0 0 30 30;" xml:space="preserve">
<style type="text/css">
	.st0{fill:#010201;}
</style>
<title>icon_email_circle</title>
<path class="st0" d="M15,30C6.7,30,0,23.3,0,15S6.7,0,15,0s15,6.7,15,15S23.3,30,15,30z M15,0.5C7,0.5,0.5,7,0.5,15S7,29.5,15,29.5
	S29.5,23,29.5,15C29.5,7,23,0.5,15,0.5z"/>
<path class="st0" d="M6.9,10.4v10h16v-10H6.9z M7.9,11.9l3.9,2.9l-3.9,3.9C7.9,18.6,7.9,11.9,7.9,11.9z M14.9,15.7l-6-4.3h11.9
	L14.9,15.7z M12.6,15.3l2.3,1.7l2.3-1.7l4.1,4H8.5L12.6,15.3z M18,14.7l3.9-2.9v6.7L18,14.7z"/>
</svg>
